; generated by SuperSlicer 2.7.62.0-beta2 on 2026-01-22 at 08:35:11 UTC


;
;

;
;
; 

; external perimeters extrusion width = 0.43mm
; perimeters extrusion width = 0.45mm
; infill extrusion width = 0.56mm
; solid infill extrusion width = 0.46mm
; top infill extrusion width = 0.44mm
; first layer extrusion width = 0.49mm
; first layer infill extrusion width = 0.40mm


EXCLUDE_OBJECT_DEFINE NAME='ringing_tower_stl' CENTER=172.496,173.647 POLYGON=[[217.027,145.000],[223.499,145.000],[227.000,140.000],[260.000,140.000],[260.000,148.000],[148.000,148.000],[148.000,260.000],[140.000,260.000],[140.000,186.474],[145.000,182.973],[145.000,176.501],[140.000,173.000],[140.000,140.000],[213.526,140.000]]
; object:{"name":"ringing_tower_stl","id":"0","object_id":0,"copy":0,"object_center":[172.496,173.647,0.000],"boundingbox_center":[200.000,200.000,30.000],"boundingbox_size":[120.000,120.000,60.000],"scale":[1.000,1.000,1.000],"outline":[[217.027,145.000],[223.499,145.000],[227.000,140.000],[260.000,140.000],[260.000,148.000],[148.000,148.000],[148.000,260.000],[140.000,260.000],[140.000,186.474],[145.000,182.973],[145.000,176.501],[140.000,173.000],[140.000,140.000],[213.526,140.000]]}
; plater:{,"object_center":[182.509,182.509,0.000],"boundingbox_center":[200.000,200.000,30.000],"boundingbox_size":[120.000,120.000,60.000],"outline":[[140.000,140.000],[260.000,140.000],[260.000,148.000],[148.000,260.000],[140.000,260.000]]}

M107
;TYPE:Custom
; --- Anycubic Chiron Start G-Code für Klipper ---
M117 Druckvorbereitung...
G90 ; Absolute Positionierung

; 1. Homing & Vorbereitung
G28 ; Homing aller Achsen
G1 Z50 F3000 ; Kopf hochfahren zur Sicherheit

; 2. Temperaturen setzen und warten
M104 S210 ; Düse vorheizen
M190 S55 ; Warten auf Bett-Temperatur
M109 S210 ; Warten auf Düsen-Temperatur

; 3. Bett-Leveling laden
BED_MESH_PROFILE LOAD=default ; Dein gespeichertes Mesh laden

; 4. Schicht-Statistiken für Klipper initialisieren
SET_PRINT_STATS_INFO TOTAL_LAYER=300

; 5. Prime Line (Reinigungsspur)
M117 Prime Line...
G1 X10 Y20 Z0.3 F5000.0       ; Startposition anfahren
G92 E0                         ; Extruder auf Null
G1 X10 Y200.0 Z0.3 F1500.0 E15 ; Erste Linie nach hinten
G1 X10.4 Y200.0 Z0.3 F5000.0   ; Minimal zur Seite springen
G1 X10.4 Y20 Z0.3 F1500.0 E30  ; Zweite Linie zurück nach vorne
G92 E0                         ; Extruder erneut auf Null setzen

; 6. Finale Vorbereitung
G1 Z2.0 F3000 ; Kopf kurz anheben um Schmieren zu vermeiden
M117 Drucke Schicht 1...
; --- Start Druck ---
G21 ; set units to millimeters
G90 ; use absolute coordinates
M83 ; use relative distances for extrusion
; Filament gcode
;LAYER_CHANGE
;Z:0.2
;HEIGHT:0.2
SET_PRINT_STATS_INFO CURRENT_LAYER=0
G92 E0
G10 ; retract
G1 X137.16328 Y136.65657 F7800
G1 Z.2
G11 ; unretract
;TYPE:Skirt/Brim
;WIDTH:0.50292
G1 F1800;
G1 X137.66821 Y136.27015 E.02432
G1 X138.57765 Y135.83892 E.038497
G1 X139.60766 Y135.62997 E.0402
G1 X212.97516 Y135.63661 E2.806245
G1 X214.37267 Y136.002 E.055251
G1 X215.13359 Y136.44309 E.033641
G1 X215.80408 Y137.03715 E.034263
G1 X218.35179 Y140.62998 E.168467
G1 X221.30954 Y140.62998 E.113132
G1 X223.90196 Y136.98991 E.17093
G1 X224.83076 Y136.24051 E.045648
G1 X225.64546 Y135.86268 E.034349
G1 X226.53553 Y135.65481 E.034961
G1 X260.80936 Y135.67669 E1.310945
G1 X261.50045 Y135.86844 E.027432
G1 X262.20206 Y136.19272 E.029564
G1 X262.83907 Y136.65852 E.030184
G1 X263.42636 Y137.25931 E.032136
G1 X263.87773 Y137.92777 E.03085
G1 X264.19953 Y138.69704 E.031895
G1 X264.35512 Y139.45662 E.029657
G1 X264.32401 Y148.80492 E.357566
G1 X264.13878 Y149.48145 E.02683
G1 X263.77957 Y150.24709 E.032347
G1 X263.3542 Y150.82595 E.027476
G1 X262.82209 Y151.35806 E.028784
G1 X262.00393 Y151.91552 E.037867
G1 X261.24096 Y152.21797 E.031392
G1 X260.43861 Y152.36558 E.031205
G1 X207.7142 Y152.37003 E2.016664
G1 X206.50459 Y152.11096 E.047316
G1 X205.50755 Y151.59788 E.042889
G1 X204.71569 Y150.87002 E.041139
G1 X203.28431 Y150.87002 E.054749
G1 X202.49246 Y151.59788 E.041139
G1 X201.49543 Y152.11095 E.042889
G1 X200.28599 Y152.37002 E.047309
G1 X152.37002 Y152.37002 E1.832746
G1 X152.37002 Y182.59025 E1.155898
G1 X152.17195 Y183.6431 E.040977
G1 X151.72561 Y184.62534 E.041267
G1 X150.87002 Y185.67188 E.051704
G1 X150.87002 Y188.19926 E.09667
G1 X151.72561 Y189.24579 E.051704
G1 X152.17195 Y190.22803 E.041267
G1 X152.37002 Y191.28089 E.040977
G1 X152.37002 Y216.71911 E.972991
G1 X152.17195 Y217.77197 E.040977
G1 X151.72561 Y218.7542 E.041267
G1 X150.87002 Y219.80074 E.051704
G1 X150.87002 Y222.3278 E.096657
G1 X151.70914 Y223.3485 E.050541
G1 X152.13264 Y224.24432 E.0379
G1 X152.37006 Y225.36237 E.043718
G1 X152.34616 Y260.62932 E1.348932
G1 X152.20624 Y261.28118 E.025501
G1 X151.94919 Y261.93731 E.026953
G1 X151.36631 Y262.81385 E.040263
G1 X150.81103 Y263.36576 E.029946
G1 X150.24919 Y263.77964 E.026691
G1 X149.50485 Y264.12981 E.031463
G1 X148.81099 Y264.3229 E.027549
G1 X139.61498 Y264.37033 E.351744
G1 X138.65461 Y264.18641 E.037401
G1 X137.75459 Y263.78078 E.03776
G1 X137.17405 Y263.35421 E.027555
G1 X136.65657 Y262.83672 E.027992
G1 X136.27015 Y262.3318 E.024319
G1 X135.83892 Y261.42237 E.038498
G1 X135.62998 Y260.39251 E.040193
G1 X135.62998 Y187.08528 E2.80394
G1 X135.99931 Y185.63208 E.057351
G1 X136.44308 Y184.86643 E.033849
G1 X137.03716 Y184.19591 E.034265
G1 X140.62998 Y181.64822 E.168466
G1 X140.62998 Y178.69049 E.113131
G1 X136.99084 Y176.09898 E.170881
G1 X136.2433 Y175.17391 E.045492
G1 X135.84919 Y174.31408 E.036178
G1 X135.64357 Y173.36516 E.037137
G1 X135.62993 Y139.6109 E1.291073
G1 X135.81366 Y138.65437 E.037255
G1 X136.21922 Y137.75459 E.03775
G1 X136.6458 Y137.17405 E.027555
G1 X137.12085 Y136.699 E.025697
G1 X137.47753 Y136.99286 F7800
G1 F1800;
G1 X137.9271 Y136.65116 E.021599
G1 X138.74762 Y136.26725 E.03465
G1 X139.63044 Y136.08997 E.034441
G1 X212.94575 Y136.09661 E2.804249
G1 X214.1689 Y136.41558 E.048349
G1 X214.88247 Y136.82922 E.031548
G1 X215.47789 Y137.36253 E.030573
G1 X218.11368 Y141.08998 E.174617
G1 X221.54721 Y141.08998 E.131329
G1 X224.21689 Y137.32663 E.176486
G1 X225.05204 Y136.64478 E.041238
G1 X225.77594 Y136.3044 E.030597
G1 X226.56262 Y136.11483 E.030951
G1 X260.71789 Y136.12854 E1.306411
G1 X261.32487 Y136.29404 E.024064
G1 X261.98813 Y136.6006 E.027947
G1 X262.52327 Y136.99351 E.025394
G1 X263.08253 Y137.56564 E.030602
G1 X263.4829 Y138.16484 E.027564
G1 X263.75397 Y138.81341 E.026887
G1 X263.89507 Y139.47978 E.026053
G1 X263.872 Y148.71448 E.35322
G1 X263.71305 Y149.30611 E.023432
G1 X263.39452 Y149.99441 E.029009
G1 X263.01628 Y150.51334 E.024562
G1 X262.51195 Y151.01767 E.027281
G1 X261.80897 Y151.49813 E.032568
G1 X261.13335 Y151.77016 E.027858
G1 X260.41708 Y151.90558 E.027882
G1 X207.73816 Y151.91003 E2.014924
G1 X206.68775 Y151.68788 E.041067
G1 X205.74632 Y151.20342 E.040497
G1 X204.89715 Y150.41002 E.04445
G1 X203.10285 Y150.41002 E.068631
G1 X202.25369 Y151.20341 E.04445
G1 X201.31227 Y151.68787 E.040497
G1 X200.26199 Y151.91002 E.041061
G1 X151.91002 Y151.91002 E1.849422
G1 X151.91002 Y182.5684 E1.172657
G1 X151.72549 Y183.52884 E.037408
G1 X151.3205 Y184.40542 E.036934
G1 X150.41002 Y185.5063 E.054643
G1 X150.41002 Y188.36483 E.109336
G1 X151.3205 Y189.46572 E.054643
G1 X151.72549 Y190.3423 E.036934
G1 X151.91002 Y191.30273 E.037408
G1 X151.91002 Y216.69727 E.97132
G1 X151.72549 Y217.6577 E.037407
G1 X151.3205 Y218.53428 E.036934
G1 X150.41002 Y219.63517 E.054643
G1 X150.41002 Y222.49397 E.109347
G1 X151.30676 Y223.5732 E.05367
G1 X151.68884 Y224.36829 E.033741
G1 X151.91005 Y225.3868 E.039865
G1 X151.89132 Y260.55651 E1.345212
G1 X151.7605 Y261.16592 E.02384
G1 X151.53055 Y261.74518 E.023839
G1 X151.02492 Y262.5047 E.034899
G1 X150.52247 Y263.00714 E.027179
G1 X150.03235 Y263.37329 E.0234
G1 X149.32706 Y263.70509 E.029813
G1 X148.71893 Y263.8712 E.024113
G1 X139.63581 Y263.91024 E.347425
G1 X138.7693 Y263.74015 E.033775
G1 X138.00646 Y263.39514 E.032024
G1 X137.48667 Y263.01628 E.024602
G1 X136.99286 Y262.52248 E.026711
G1 X136.65116 Y262.0729 E.021599
G1 X136.26725 Y261.25239 E.034649
G1 X136.08998 Y260.36969 E.034437
G1 X136.08998 Y187.11379 E2.801976
G1 X136.41333 Y185.83509 E.050449
G1 X136.82922 Y185.11753 E.031723
G1 X137.36254 Y184.5221 E.030575
G1 X141.08998 Y181.88633 E.174615
G1 X141.08998 Y178.45281 E.131329
G1 X137.32731 Y175.7838 E.17645
G1 X136.64822 Y174.95375 E.04102
G1 X136.29279 Y174.1898 E.032228
G1 X136.10356 Y173.3398 E.033308
G1 X136.08994 Y139.63311 E1.289253
G1 X136.25989 Y138.7692 E.033677
G1 X136.60486 Y138.00646 E.032019
G1 X136.98372 Y137.48667 E.024602
G1 X137.4351 Y137.03529 E.024417
G1 X137.79145 Y137.32948 F7800
G1 F1800;
G1 X138.185 Y137.03281 E.018851
G1 X138.86716 Y136.71228 E.028828
G1 X139.65382 Y136.54997 E.030723
G1 X212.9164 Y136.5566 E2.802232
G1 X213.96714 Y136.83009 E.041529
G1 X214.59368 Y137.1881 E.027601
G1 X215.15159 Y137.6878 E.028648
G1 X217.87519 Y141.54998 E.180763
G1 X221.78539 Y141.54998 E.149561
G1 X224.53364 Y137.66158 E.182126
G1 X225.27402 Y137.04871 E.036763
G1 X225.94988 Y136.73093 E.028566
G1 X226.64176 Y136.56874 E.027181
G1 X260.62827 Y136.58072 E1.299955
G1 X261.14986 Y136.71991 E.020649
G1 X261.77389 Y137.00834 E.026295
G1 X262.20855 Y137.32948 E.020671
G1 X262.71221 Y137.8394 E.027414
G1 X263.08801 Y138.40183 E.025873
G1 X263.30914 Y138.93234 E.021984
G1 X263.43502 Y139.50414 E.022394
G1 X263.41963 Y148.62599 E.348904
G1 X263.28631 Y149.13325 E.020061
G1 X263.00823 Y149.74362 E.025655
G1 X262.67798 Y150.20109 E.021581
G1 X262.20165 Y150.67743 E.025766
G1 X261.61381 Y151.08082 E.027269
G1 X260.98252 Y151.335 E.02603
G1 X260.39561 Y151.44558 E.022844
G1 X207.76174 Y151.45003 E2.013201
G1 X206.87057 Y151.26462 E.034817
G1 X205.98591 Y150.80937 E.038055
G1 X205.08073 Y149.95002 E.04774
G1 X202.91927 Y149.95002 E.082674
G1 X202.0141 Y150.80937 E.04774
G1 X201.12945 Y151.26462 E.038054
G1 X200.23838 Y151.45002 E.034813
G1 X151.45002 Y151.45002 E1.866113
G1 X151.45002 Y182.5469 E1.18943
G1 X151.29603 Y183.36162 E.031714
G1 X150.91565 Y184.1849 E.034688
G1 X149.95002 Y185.33927 E.057565
G1 X149.95002 Y188.53186 E.122114
G1 X150.91565 Y189.68623 E.057565
G1 X151.29603 Y190.50952 E.034688
G1 X151.45002 Y191.32423 E.031714
G1 X151.45002 Y216.67577 E.969675
G1 X151.29603 Y217.49048 E.031714
G1 X150.91565 Y218.31377 E.034689
G1 X149.95002 Y219.46814 E.057564
G1 X149.95002 Y222.6614 E.12214
G1 X150.9059 Y223.80057 E.05688
G1 X151.24575 Y224.49483 E.029565
G1 X151.45003 Y225.41189 E.035937
G1 X151.4362 Y260.48559 E1.341539
G1 X151.32566 Y261.01457 E.020671
G1 X151.11193 Y261.55298 E.022157
G1 X150.68359 Y262.19549 E.029536
G1 X150.20855 Y262.67053 E.025696
G1 X149.81505 Y262.96716 E.018848
G1 X149.14987 Y263.28009 E.028117
G1 X148.62895 Y263.41911 E.020623
G1 X139.65673 Y263.45016 E.343182
G1 X138.93255 Y263.3093 E.028218
G1 X138.25644 Y263.00827 E.028308
G1 X137.79891 Y262.67798 E.021584
G1 X137.32948 Y262.20855 E.025392
G1 X137.03281 Y261.815 E.018851
G1 X136.71228 Y261.13285 E.028829
G1 X136.54998 Y260.34628 E.030719
G1 X136.54998 Y187.14218 E2.799995
G1 X136.82831 Y186.03603 E.043628
G1 X137.1881 Y185.40631 E.027741
G1 X137.68782 Y184.8484 E.028648
G1 X141.54998 Y182.12481 E.180762
G1 X141.54998 Y178.21462 E.149562
G1 X137.66203 Y175.46681 E.182102
G1 X137.0517 Y174.73097 E.036567
G1 X136.73555 Y174.0626 E.02828
G1 X136.56355 Y173.31368 E.029391
G1 X136.54995 Y139.65512 E1.287412
G1 X136.69072 Y138.93249 E.02816
G1 X136.99173 Y138.25644 E.028305
G1 X137.32202 Y137.79891 E.021584
G1 X137.74902 Y137.3719 E.023098
G1 X138.10498 Y137.66649 F7800
G1 F1800;
G1 X138.44088 Y137.41582 E.016031
G1 X139.03588 Y137.14104 E.025067
G1 X139.677 Y137.00998 E.02503
G1 X212.88712 Y137.0166 E2.800225
G1 X213.76543 Y137.24463 E.034709
G1 X214.34362 Y137.57501 E.025471
G1 X214.82344 Y138.01116 E.024801
G1 X217.63636 Y142.00998 E.187004
G1 X222.02403 Y142.00998 E.167824
G1 X224.85239 Y137.99457 E.187862
G1 X225.49895 Y137.45102 E.032309
G1 X226.07912 Y137.17311 E.024605
G1 X226.7209 Y137.02266 E.025213
G1 X260.54097 Y137.03331 E1.293589
G1 X260.97557 Y137.14611 E.017174
G1 X261.55914 Y137.41584 E.024591
G1 X261.89502 Y137.66649 E.016029
G1 X262.34229 Y138.11375 E.024194
G1 X262.69298 Y138.6386 E.024144
G1 X262.86522 Y139.05441 E.017215
G1 X262.975 Y139.52995 E.018667
G1 X262.96688 Y148.53974 E.344618
G1 X262.85844 Y148.96324 E.01672
G1 X262.62046 Y149.49511 E.022288
G1 X262.33923 Y149.88931 E.018521
G1 X261.89118 Y150.33736 E.024236
G1 X261.41642 Y150.66459 E.022055
G1 X260.87198 Y150.88791 E.022508
G1 X260.37332 Y150.98558 E.019436
G1 X207.78597 Y150.99003 E2.011422
G1 X206.99755 Y150.82138 E.030839
G1 X206.22875 Y150.41734 E.033219
G1 X205.26627 Y149.49002 E.051121
G1 X202.73373 Y149.49002 E.096868
G1 X201.77125 Y150.41734 E.05112
G1 X201.00246 Y150.82137 E.03322
G1 X200.21412 Y150.99002 E.030835
G1 X150.99002 Y150.99002 E1.88278
G1 X150.99002 Y182.52482 E1.20618
G1 X150.84993 Y183.24576 E.028091
G1 X150.51242 Y183.9615 E.030268
G1 X149.49002 Y185.17089 E.060573
G1 X149.49002 Y188.70024 E.134995
G1 X150.51242 Y189.90963 E.060572
G1 X150.84993 Y190.62537 E.030268
G1 X150.99002 Y191.34632 E.028091
G1 X150.99002 Y216.65368 E.967986
G1 X150.84993 Y217.37462 E.028091
G1 X150.51242 Y218.09037 E.030268
G1 X149.49002 Y219.29976 E.060573
G1 X149.49002 Y222.82997 E.135027
G1 X150.50677 Y224.03089 E.060186
G1 X150.80352 Y224.62438 E.02538
G1 X150.99003 Y225.43776 E.031919
G1 X150.98108 Y260.41468 E1.337838
G1 X150.87958 Y260.90041 E.01898
G1 X150.69427 Y261.35877 E.01891
G1 X150.34229 Y261.88625 E.024255
G1 X149.89502 Y262.33352 E.024194
G1 X149.55914 Y262.58416 E.01603
G1 X148.97557 Y262.85389 E.02459
G1 X148.54139 Y262.9666 E.017158
G1 X139.67865 Y262.9901 E.338993
G1 X139.04827 Y262.86336 E.024594
G1 X138.50492 Y262.62047 E.022765
G1 X138.11069 Y262.33923 E.018523
G1 X137.66649 Y261.89502 E.024028
G1 X137.41582 Y261.55912 E.016031
G1 X137.14104 Y260.96412 E.025068
G1 X137.00998 Y260.32306 E.025027
G1 X137.00998 Y187.17039 E2.798028
G1 X137.24337 Y186.23682 E.036807
G1 X137.57501 Y185.65637 E.02557
G1 X138.01117 Y185.17656 E.024802
G1 X142.00998 Y182.36364 E.187003
G1 X142.00998 Y177.97598 E.167824
G1 X137.99478 Y175.14782 E.187851
G1 X137.45356 Y174.50525 E.032134
G1 X137.17728 Y173.93189 E.024344
G1 X137.02353 Y173.28661 E.025372
G1 X137.00996 Y139.67783 E1.285508
G1 X137.13664 Y139.04827 E.024563
G1 X137.37953 Y138.50492 E.022764
G1 X137.66077 Y138.11069 E.018523
G1 X138.06255 Y137.70891 E.021734
G1 X138.418 Y138.004 F7800
G1 F1800;
G1 X138.69424 Y137.80053 E.013122
G1 X139.2019 Y137.57082 E.021313
G1 X139.69996 Y137.46998 E.019437
G1 X212.85785 Y137.4766 E2.798228
G1 X213.56655 Y137.66047 E.028005
G1 X214.05359 Y137.93302 E.021347
G1 X214.49519 Y138.33442 E.022826
G1 X217.3972 Y142.46998 E.193241
G1 X222.26311 Y142.46998 E.186117
G1 X225.1734 Y138.32531 E.193709
G1 X225.72723 Y137.85144 E.02788
G1 X226.21261 Y137.61401 E.020667
G1 X226.74853 Y137.48267 E.021105
G1 X260.45651 Y137.48637 E1.289302
G1 X260.80467 Y137.57368 E.013729
G1 X261.30577 Y137.80053 E.02104
G1 X261.582 Y138.004 E.013122
G1 X262.00104 Y138.42304 E.022667
G1 X262.27664 Y138.83551 E.018974
G1 X262.43262 Y139.21207 E.01559
G1 X262.52053 Y139.60548 E.015419
G1 X262.51369 Y148.4561 E.338529
G1 X262.42925 Y148.79656 E.013417
G1 X262.23088 Y149.24943 E.01891
G1 X261.9999 Y149.5781 E.015366
G1 X261.58053 Y149.99747 E.022684
G1 X261.21652 Y150.2496 E.016937
G1 X260.75752 Y150.44182 E.019034
G1 X260.34997 Y150.52559 E.015914
G1 X207.81097 Y150.53003 E2.009573
G1 X207.1279 Y150.37908 E.026757
G1 X206.4752 Y150.0276 E.028355
G1 X205.45361 Y149.03002 E.054614
G1 X202.54639 Y149.03002 E.111199
G1 X201.5248 Y150.0276 E.054615
G1 X200.8721 Y150.37908 E.028355
G1 X200.18909 Y150.53002 E.026755
G1 X150.53002 Y150.53002 E1.899418
G1 X150.53002 Y182.50202 E1.222902
G1 X150.40463 Y183.12682 E.024374
G1 X150.11104 Y183.73486 E.025826
G1 X149.03002 Y185.00126 E.063687
G1 X149.03002 Y188.86988 E.147971
G1 X150.11104 Y190.13627 E.063687
G1 X150.40463 Y190.74431 E.025826
